X: 10
T: This Is My Love, Do You Like Her?
R: jig
M: 6/8
L: 1/8
K: Gmaj
|:G/F/|EFE EDE|G3-G2 B|ABA AGA|~d3 ~e3|
dBA GAB|ABA DEF|GFE FED|E3-E2:|
|:d|e2 e edB|~d3 dBd|e2 e edB|~d3 g2 e|
dBG GAB|ABA DEF|GFE FED|E3-E2:|


Tune 6	Setting 1791

